X:422
T:Barney O'Neill's
O:england
R:Jig
C:Trad
M:6/8
L:1/8
K:D
L:1/8
d2B|AFD DFA|B2d F2A|AFD DEF|GFG EFG|
AFD DFA|B2d F2A|Bdd F2E|1 FDD DdB:|2 FDD D2g
|:fed dAd|efe efg|fed faa|agf eag|
fed B2d|A2d F2A|Bdd F2E|1 FDD D2g:|2 FDD D3||


